!!!COM: Palestrina, Giovanni Perluigi da
!!!OPR: Missa Qual e il piu grande'amore
!!!OTL: Agnus II
**kern	**kern	**kern	**kern	**kern
*Ibass	*Itenor	*Icalto	*Icant	*Icant
!Bassus	!Tenor	!Altus	!Cantus 2	!Cantus 1
*clefF4	*clefGv2	*clefG2	*clefG2	*clefG2
*k[b-]	*k[b-]	*k[b-]	*k[b-]	*k[b-]
*F:ion	*F:ion	*F:ion	*F:ion	*F:ion
*M4/2	*M4/2	*M4/2	*M4/2	*M4/2
=1	=1	=1	=1	=1
0r	1F	1r	0r	0r
.	1A	1c	.	.
=2	=2	=2	=2	=2
1F	2.c	1A	0r	0r
.	4B-	.	.	.
1A	4A	2.F	.	.
.	4G	.	.	.
.	[2F	.	.	.
.	.	4G	.	.
=3	=3	=3	=3	=3
2.c	4F]	4A	0r	0r
.	4G	4B-	.	.
.	4A	4c	.	.
4B-	4B-	4d	.	.
4A	2c	2e	.	.
4G	.	.	.	.
4F	2A	[2f	.	.
4E	.	.	.	.
=4	=4	=4	=4	=4
2D	2B-	2f]	0r	0r
2C	1c	2e	.	.
1G	.	1d	.	.
.	2B-	.	.	.
=5	=5	=5	=5	=5
2A	2c	2c	1f	1r
2B-	2d	2B-	.	.
1F	2c	2A	1a	1cc
.	2F	[2f	.	.
=6	=6	=6	=6	=6
1.F	2.A	4f]	2.cc	1a
.	.	8e	.	.
.	.	8d	.	.
.	.	2c	.	.
.	4B-	.	4b-	.
.	2c	2F	4a	2.f
.	.	.	4g	.
4D	2d	[2f	4f	.
4E	.	.	4e	4g
=7	=7	=7	=7	=7
4F	1A	2f]	2d	4a
4G	.	.	.	4b-
2A	.	1e	2c	1cc
1G	1r	.	[1g	.
.	.	2d	.	2b
=8	=8	=8	=8	=8
1C	2r	0e	0g]	1cc
.	2G	.	.	.
2r	2c	.	.	2g
2C	4c	.	.	2cc
.	4B-	.	.	.
=9	=9	=9	=9	=9
2F	4A	2c	0r	4cc
.	4G	.	.	4b-
4F	1F	2f	.	4a
4E	.	.	.	4g
4D	.	4f	.	2f
4C	.	4e	.	.
[2BB-	2B-	4d	.	2f
.	.	4c	.	.
=10	=10	=10	=10	=10
2BB-]	2d	2B-	0r	2g
2F	2c	2A	.	2a
2G	2B-	2d	.	2b-
2A	2F	2c	.	[2a
=11	=11	=11	=11	=11
1B-	1r	2.d	2r	2a]
.	.	.	2dd	2g
.	.	4e	.	.
[1F	2r	1f	2cc	1a
.	2F	.	4cc	.
.	.	.	4b-	.
=12	=12	=12	=12	=12
1F]	2c	1f	4a	2r
.	.	.	4g	.
.	4c	.	1f	2a
.	4B-	.	.	.
1r	4A	2c	.	1a
.	4G	.	.	.
.	2F	2d	2f	.
=13	=13	=13	=13	=13
0r	2r	2e	2g	1cc
.	2F	2f	2a	.
.	2G	4d	2b-	2r
.	.	4e	.	.
.	2A	[2f	[2a	2c
=14	=14	=14	=14	=14
2r	2B-	2f]	2a]	2d
2C	2.c	4e	2g	2e
.	.	4d	.	.
2F	.	2c	1a	2.f
.	4B-	.	.	.
4F	4A	2f	.	.
4E	4G	.	.	4g
=15	=15	=15	=15	=15
4D	1F	4f	2r	2a
4C	.	4e	.	.
1BB-	.	4d	2f	1b-
.	.	4c	.	.
.	1r	2d	2f	.
2C	.	2c	2e	[2a
=16	=16	=16	=16	=16
2D	1r	1B-	2f	2a]
2E	.	.	4e	2g
.	.	.	4d	.
1F	2r	1A	2c	1a
.	2F	.	[2f	.
=17	=17	=17	=17	=17
0C	2c	1r	2f]	1g
.	2.c	.	4e	.
.	.	.	4d	.
.	.	2r	1e	2cc
.	4B-	.	.	.
.	4A	2c	.	[2cc
.	4G	.	.	.
=18	=18	=18	=18	=18
0r	1.F	2f	2r	4cc]
.	.	.	.	4b-
.	.	2.f	2a	4a
.	.	.	.	4g
.	.	.	1a	2.f
.	.	4e	.	.
.	2F	4d	.	.
.	.	4c	.	4e
=19	=19	=19	=19	=19
0r	2G	2B-	2b-	1.d
.	2A	2F	2a	.
.	2B-	2G	2g	.
.	2A	2A	2f	2c
=20	=20	=20	=20	=20
1r	1G	1B-	1g	2d
.	.	.	.	2e
2r	1F	1A	2cc	2.f
[2A	.	.	[2cc	.
.	.	.	.	8e
.	.	.	.	8d
=21	=21	=21	=21	=21
2A]	0r	2r	2cc]	2e
2A	.	2c	2cc	2f
1G	.	2d	1b-	1g
.	.	2e	.	.
=22	=22	=22	=22	=22
1F	2r	2.f	2.a	2r
.	1A	.	.	1cc
.	.	8e	8g	.
.	.	8d	8f	.
1r	.	1c	2e	.
.	2A	.	[2f	2cc
=23	=23	=23	=23	=23
0r	1G	2d	2f]	1b-
.	.	4c	2e	.
.	.	4B-	.	.
.	2F	2c	1f	2a
.	[2B-	4B-	.	[2dd
.	.	4c	.	.
=24	=24	=24	=24	=24
0r	2B-]	4d	2.f	2dd]
.	.	4e	.	.
.	2A	4f	.	2cc
.	.	4c	4f	.
.	2B-	4d	2f	2b-
.	.	4e	.	.
.	2d	[2f	2f	2a
=25	=25	=25	=25	=25
1r	1c	2f]	1g	2.cc
.	.	2e	.	.
.	.	.	.	4b-
2r	1F	2f	2f	1a
[2D	.	[2f	[2a	.
=26	=26	=26	=26	=26
2D]	2r	2f]	2a]	1f
2D	2F	2d	2b-	.
1C	2G	1e-	1cc	2r
.	2A	.	.	2c
=27	=27	=27	=27	=27
0BB-	1B-	2d	2f	2.d
.	.	4B-	1dd	.
.	.	4c	.	4e
.	1B-	4d	.	2.f
.	.	4e	.	.
.	.	[2f	2dd	.
.	.	.	.	4g
=28	=28	=28	=28	=28
1.F	2.A	4f]	2.cc	1a
.	.	4e	.	.
.	.	2.c	.	.
.	4B-	.	4b-	.
.	1c	.	2a	2f
.	.	4d	.	.
2E	.	2e	2g	2g
=29	=29	=29	=29	=29
2F	0r	4d	4f	2a
.	.	4c	4e	.
2A	.	1c	4d	2f
.	.	.	4c	.
1G	.	.	2.d	1g
.	.	2B-	.	.
.	.	.	4e	.
=30	=30	=30	=30	=30
2.F	0r	2c	4f	2r
.	.	.	4g	.
.	.	1f	4a	1a
8E	.	.	4b-	.
8D	.	.	.	.
1C	.	.	1cc	.
.	.	2e	.	2g
=31	=31	=31	=31	=31
0r	2r	1f	2cc	2a
.	1B-	.	1dd	2b-
.	.	2d	.	1f
.	2A	4f	2cc	.
.	.	4e	.	.
=32	=32	=32	=32	=32
2r	1.B-	4d	2.b-	2f
.	.	4c	.	.
1BB-	.	4B-	.	1dd
.	.	4c	4a	.
.	.	4d	4f	.
.	.	4e	4g	.
2AA	2c	[2f	2a	2cc
=33	=33	=33	=33	=33
2BB-	1F	2f]	2d	2b-
2D	.	2F	1f	2a
1C	1G	1c	.	1cc
.	.	.	2e	.
=34	=34	=34	=34	=34
2.BB-	2r	1F	2f	1dd
.	1B-	.	1dd	.
4C	.	.	.	.
4D	.	1F	.	1r
4E	.	.	.	.
2F	2A	.	2cc	.
=35	=35	=35	=35	=35
2r	1.B-	2.f	2.b-	1.dd
1BB-	.	.	.	.
.	.	4e	4a	.
.	.	4d	4f	.
.	.	4B-	4g	.
2AA	2c	[2f	2a	2cc
=36	=36	=36	=36	=36
2.BB-	2.d	2f]	2d	2.b-
.	.	2f	1dd	.
4C	8c	.	.	4a
.	8B-	.	.	.
2D	2.A	[1f	.	4f
.	.	.	.	4g
2AA	.	.	2cc	2a
.	4G	.	.	.
=37	=37	=37	=37	=37
2BB-	1F	2f]	2b-	2d
2D	.	2F	2a	1f
1C	1G	1c	1cc	.
.	.	.	.	2e
=38	=38	=38	=38	=38
0F	0F	0c	0a	0f
==	==	==	==	==
*-	*-	*-	*-	*-
!!!CDT: 1525/^1526/-1594/2/2
!!!OCY: Italia
!!!AGN: Mass (Parody)
!!!AST: renaissance, vocal
!!!ASW: Madrigal 1550 (Rore)
!!!PWK: Masses, Book 12
!!!RNB: Cadence finals: C
!!!YOR: Le Opere Complete, v. 29, p. 88
!!!YOO: Rome, Italy: Fratelli Scalera
!!!END: 1992//
!!!EED: John Miller
!!!YEC: Copyright 2000, John Miller
!!!YEN: United States of America
!!!YEM: Rights to all derivative electronic formats reserved.
!!!YEM: Refer to licensing agreement for further details.
!!!YEM: This file must be accompanied by the licensing agreement.
!!!YEM: A copy of the licensing agreement may be found at http://www.music-cog.ohio-state.edu/HumdrumDatabases/Palestrina/license.txt
!!!EMD: converted to Humdrum by Bret Aarden
